X:3
T:Who supplies this food surprise
M:4/4
L:1/8
Q:1/4=169
K:Am
|: A,2 EA cEAc | F,2 CF ACFA | G,2 DG BDGB | E,2 B,E GBEB :|
| a2 e2 c2 A2 | f2 c2 A2 F2 | g2 d2 B2 G2 | e2 B2 G2 E2 |
